X: 1
T: Quadriglia Amblas!
C: N.N. (1917)
N: Arr. L. Canoro
R: tarantella
M: 6/8
L: 1/8
P: Play AABBACCA
K: D
"A"[|]\
d "A7"de^e |\
"D"f2A AGF | F2d dcB | "A7"A2A G2G | "D"F2d "A7"de^e |\
"D"f2A AGF | F2A AGF | "A7"Edc BAG | "D"F2 :|
"B"\
|: B BcB |\
"A7"A2B G2A | "D"F2B BcB | "A7"A2B G2A | "D"F2d "A7"de^e |\
"D"f2A AGF | F2A AGF | "A7"Edc BAG | "D"F2 :|[K:G]
"C"\
|: G "D7"GA^A |\
"G"BGB "D7"GA^A | "G"BGB efe | "D7"ded cdc | "G"B2G "D7"GA^A |\
"G"BGB "D7"GA^A | "G"BGB BcB | "D7"AGF EDC | "G"B,2 :|

%%sep 1 1 500
%%sep 1 1 500

